Sources/FrostedUI/Resources/Icons.xcassets/arrowUpFromBracket24.imageset/arrow-up-from-bracket-24.svg

<svg width="24" height="24" viewBox="0 0 24 24" fill="none" xmlns="http://www.w3.org/2000/svg" data-fui-icon="true">
  <path
    d="M22.25 12.5C22.6642 12.5 23 12.8358 23 13.25V17.25C23 20.4256 20.4256 23 17.25 23H6.75C3.57436 23 1 20.4256 1 17.25V13.25C1 12.8358 1.33579 12.5 1.75 12.5C2.16421 12.5 2.5 12.8358 2.5 13.25V17.25C2.5 19.5972 4.40279 21.5 6.75 21.5H17.25C19.5972 21.5 21.5 19.5972 21.5 17.25V13.25C21.5 12.8358 21.8358 12.5 22.25 12.5ZM11.2109 2.1123C11.7019 1.71182 12.4261 1.74058 12.8838 2.19824L18.0303 7.34473C18.3231 7.63762 18.3232 8.11239 18.0303 8.40527C17.7374 8.69811 17.2626 8.69811 16.9697 8.40527L12.75 4.18555V14.25C12.75 14.6642 12.4142 15 12 15C11.5858 15 11.25 14.6642 11.25 14.25V4.18555L7.03027 8.40527C6.73739 8.69811 6.26261 8.69811 5.96973 8.40527C5.67685 8.11239 5.67687 7.63762 5.96973 7.34473L11.1162 2.19824L11.2109 2.1123Z"
    fill="currentColor"
  />
</svg>

<svg xmlns="http://www.w3.org/2000/svg" width="24" height="24" fill="none" data-fui-icon="true" viewBox="0 0 24 24"><path fill="currentColor" d="M22.25 12.5a.75.75 0 0 1 .75.75v4A5.75 5.75 0 0 1 17.25 23H6.75A5.75 5.75 0 0 1 1 17.25v-4a.75.75 0 0 1 1.5 0v4a4.25 4.25 0 0 0 4.25 4.25h10.5a4.25 4.25 0 0 0 4.25-4.25v-4a.75.75 0 0 1 .75-.75M11.21 2.112a1.25 1.25 0 0 1 1.674.086l5.146 5.147a.75.75 0 1 1-1.06 1.06l-4.22-4.22V14.25a.75.75 0 0 1-1.5 0V4.186l-4.22 4.22a.75.75 0 0 1-1.06-1.061l5.146-5.147z"/></svg>
